!!!OTL: WILLST DU DEIN HERZ MIR SCHENKEN
!!!ARE: Europa, Mitteleuropa, Deutschland
!!!SCT: B0355
!!!YEM: Copyright 1995, estate of Helmut Schaffrath.
**kern
*ICvox
*Ivox
*M2/4
*k[b-e-a-]
*E-:
{8e-
=1
8e-
8g
8b-
8ee-
=2
8ee-
8dd
8r}
{8gg
=3
16ff
16dd
16cc
16b-
8a-
8a-
=4
8a-
8g
8r}
{8b-
=5
8an
8ee-
8ee-
8dd
=6
8dd
8cc}
{4ee-
=7
16dd
16ff
16dd
16b-
16cc
16ee-
8an
=8
4an
8b-}
{8b-
=9
16b-
16g
8a-
24ff
24ee-
24dd
24cc
24b-
24a-
=10
8a-
8g
8r}
{8cc
=11
8bn
8cc
8ff
8ee-
=12
8ee-
8dd
8r}
{8ee-
=13
16dd
16b-
16a-
16g
16a-
16cc
16ee-
16cc
=14
16b-
16g
16f
16e-}
{4a-
=15
16g
16b-
16g
16e-
16f
16a-
8d
=16
4d
8e-}
==
!!!AGN: Liebes - Lied, Liebes - Lust
!!!ONB: ESAC (Essen Associative Code) Database: BOEHME
!!!AMT: simple duple
!!!AIN: vox
!!!EED: Helmut Schaffrath
!!!EEV: 1.0
*-
